icons-rebrand/svg/rotate-content-bold.svg

<svg xmlns="http://www.w3.org/2000/svg" width="32" height="32" viewBox="0 0 32 32" fill="none"><path d="M7.99997 19C7.99997 16.2386 10.2386 14 13 14H24C26.7614 14 29 16.2386 29 19V24C29 26.7614 26.7614 29 24 29H13C10.2386 29 7.99997 26.7614 7.99997 24V19ZM13 16C11.3431 16 9.99997 17.3431 9.99997 19V24C9.99997 25.6569 11.3431 27 13 27H24C25.6568 27 27 25.6569 27 24V19C27 17.3431 25.6568 16 24 16H13Z M15.5098 3.2929C15.1193 2.90237 14.4862 2.90237 14.0956 3.29289C13.7051 3.68341 13.7051 4.31657 14.0956 4.7071L15.5538 6.16533C10.8583 6.55011 7.7418 8.56853 5.78803 11.0724C3.62543 13.8438 2.9479 17.1299 3.00308 19.2264C3.01761 19.7785 3.47695 20.2142 4.02904 20.1997C4.58114 20.1852 5.01692 19.7258 5.00239 19.1737C4.95755 17.4702 5.52828 14.6563 7.3648 12.3027C8.96079 10.2574 11.5614 8.49492 15.7312 8.15733L14.0956 9.79292C13.7051 10.1834 13.7051 10.8166 14.0956 11.2071C14.4862 11.5977 15.1193 11.5977 15.5098 11.2071L18.7245 7.99248C19.1345 7.58244 19.1345 6.91762 18.7245 6.50757L15.5098 3.2929Z"/></svg>

<svg width="32" height="32" fill="none" xmlns="http://www.w3.org/2000/svg"><path fill-rule="evenodd" clip-rule="evenodd" d="M8 19c0-2.7614 2.2386-5 5-5h11c2.7614 0 5 2.2386 5 5v5c0 2.7614-2.2386 5-5 5H13c-2.7614 0-5-2.2386-5-5v-5zm5-3c-1.6569 0-3 1.3431-3 3v5c0 1.6569 1.3431 3 3 3h11c1.6568 0 3-1.3431 3-3v-5c0-1.6569-1.3432-3-3-3H13z" fill="#0F0F0F"/><path d="M15.5098 3.2929c-.3905-.3905-1.0236-.3905-1.4142 0-.3905.3905-.3905 1.0237 0 1.4142l1.4582 1.4582c-4.6955.3848-7.812 2.4032-9.7658 4.9071-2.1626 2.7714-2.8401 6.0575-2.785 8.154.0146.5521.474.9878 1.026.9733.5521-.0145.988-.4739.9734-1.026-.0448-1.7035.5259-4.5174 2.3624-6.871 1.596-2.0453 4.1966-3.8078 8.3664-4.1454L14.0956 9.793c-.3905.3905-.3905 1.0237 0 1.4142.3906.3906 1.0237.3906 1.4142 0l3.2147-3.2146c.41-.41.41-1.0749 0-1.485L15.5098 3.293z" fill="#0F0F0F"/></svg>
